X: 215
T:Da Mill
G:march, sort of
S:Tom Anderson, Haand me Doon Da Fiddle
M:4/4
L:1/8
Q:1/4=112
K:AMix
ABcd e2f2|d2d>d d2fe|dcBA   ABcA  |B2E>E E2ec|
dcBA ABcA|d2d>d d2fe|dcBA (3Bcd cB|A2A<B A4 :|
ecAc ecAc|fdBd  fdBd|AFDF   AFDF  |BGEG  BGE2|
ecAB ecef|d2dd  d2fe|dcBA (3Bcd cB|A2A<B A4 :|

And this Shetland wedding march song tune is minor/dorian hexatonic
ending on the fifth:

